src/app/assets/icon/otros-icon.svg

<svg width="33" height="32" viewBox="0 0 33 32" fill="none" xmlns="http://www.w3.org/2000/svg">
<g id="Capa_1" clip-path="url(#clip0_2044_194)">
<path id="Vector" d="M19.0134 13.8164C18.7395 13.8164 18.5187 14.0299 18.5187 14.2947V19.716H13.909V14.5379H12.918V20.6741H19.508V14.2963C19.508 14.0315 19.2872 13.8181 19.0134 13.8181V13.8164Z" fill="#FFD95D"/>
<path id="Vector_2" d="M8.31066 15.0029V14.2781C8.31066 14.0133 8.08985 13.7998 7.81597 13.7998C7.5421 13.7998 7.32129 14.0133 7.32129 14.2781V20.6741H11.1675V19.7159H8.31237V15.0029H8.31066Z" fill="#FFD95D"/>
<path id="Vector_3" d="M13.7642 4.90172C13.5708 4.71472 13.2576 4.71472 13.0642 4.90172L8.30904 9.49727V6.40268H7.31796V10.4538L5.14409 12.5554C4.95067 12.7424 4.95067 13.0453 5.14409 13.2323C5.33751 13.4193 5.65076 13.4193 5.84418 13.2323L13.4133 5.9145L20.9825 13.2323C21.0801 13.325 21.2068 13.3729 21.3334 13.3729C21.4601 13.3729 21.5868 13.3266 21.6843 13.2323C21.8777 13.0453 21.8777 12.7424 21.6843 12.5554L13.766 4.90007L13.7642 4.90172Z" fill="#FFD95D"/>
<path id="Vector_4" d="M32.0072 26.2608L26.9491 21.1854C26.7591 20.9951 26.4458 20.9901 26.249 21.1722C26.0521 21.3558 26.047 21.6587 26.2353 21.849L31.2951 26.9261C32.2485 27.8661 32.2485 29.3968 31.2951 30.3384C30.8398 30.7902 30.2338 31.0401 29.5902 31.0401C28.9466 31.0401 28.3407 30.7902 27.8854 30.3401L22.9283 25.3639C22.7383 25.1736 22.425 25.1686 22.2282 25.3507C22.0313 25.5344 22.0245 25.8372 22.2145 26.0275L27.1733 31.0053C27.8169 31.6441 28.6762 31.9966 29.5885 31.9966C30.5009 31.9966 31.3584 31.6441 32.0003 31.007C33.3269 29.6963 33.3269 27.5649 32.0037 26.2575L32.0072 26.2608Z" fill="#FFD95D"/>
<path id="Vector_5" d="M26.8293 13.2786C26.8293 5.95749 20.8109 0 13.4146 0C6.01836 0 0 5.95749 0 13.2786C0 20.5997 6.01836 26.5572 13.4146 26.5572C20.8109 26.5572 26.8293 20.5997 26.8293 13.2786ZM13.4146 25.6007C6.5644 25.6007 0.991078 20.0734 0.991078 13.2786C0.991078 6.48374 6.5644 0.958163 13.4146 0.958163C20.2649 0.958163 25.8382 6.48539 25.8382 13.2802C25.8382 20.0751 20.2649 25.6023 13.4146 25.6023V25.6007Z" fill="#FFD95D"/>
</g>
<defs>
<clipPath id="clip0_2044_194">
<rect width="33" height="32" fill="white"/>
</clipPath>
</defs>
</svg>

<?xml version="1.0" encoding="utf-8"?>
<!-- Generator: Adobe Illustrator 28.2.0, SVG Export Plug-In . SVG Version: 6.00 Build 0)  -->
<svg version="1.1" id="Capa_1" xmlns="http://www.w3.org/2000/svg" xmlns:xlink="http://www.w3.org/1999/xlink" x="0px" y="0px"
	 viewBox="0 0 33 32" style="enable-background:new 0 0 33 32;" xml:space="preserve">
<style type="text/css">
	.st0{fill:#FFFFFF;}
</style>
<g>
	<g id="Capa_1_00000085234501332384898830000003104348771736473223_">
		<path id="Vector" class="st0" d="M19,13.8c-0.3,0-0.5,0.2-0.5,0.5v5.4h-4.6v-5.2h-1v6.1h6.6v-6.4C19.5,14,19.3,13.8,19,13.8
			L19,13.8z"/>
		<path id="Vector_2" class="st0" d="M8.3,15v-0.7c0-0.3-0.2-0.5-0.5-0.5c-0.3,0-0.5,0.2-0.5,0.5v6.4h3.8v-1H8.3L8.3,15L8.3,15z"/>
		<path id="Vector_3" class="st0" d="M13.8,4.9c-0.2-0.2-0.5-0.2-0.7,0L8.3,9.5V6.4h-1v4.1l-2.2,2.1C5,12.7,5,13,5.1,13.2
			c0.2,0.2,0.5,0.2,0.7,0l7.6-7.3l7.6,7.3c0.1,0.1,0.2,0.1,0.4,0.1c0.1,0,0.3,0,0.4-0.1c0.2-0.2,0.2-0.5,0-0.7L13.8,4.9L13.8,4.9z"
			/>
		<path id="Vector_4" class="st0" d="M32,26.3l-5.1-5.1c-0.2-0.2-0.5-0.2-0.7,0c-0.2,0.2-0.2,0.5,0,0.7l5.1,5.1c1,0.9,1,2.5,0,3.4
			c-0.5,0.5-1.1,0.7-1.7,0.7s-1.2-0.2-1.7-0.7l-5-5c-0.2-0.2-0.5-0.2-0.7,0c-0.2,0.2-0.2,0.5,0,0.7l5,5c0.6,0.6,1.5,1,2.4,1
			c0.9,0,1.8-0.4,2.4-1C33.3,29.7,33.3,27.6,32,26.3L32,26.3z"/>
		<path id="Vector_5" class="st0" d="M26.8,13.3C26.8,6,20.8,0,13.4,0C6,0,0,6,0,13.3c0,7.3,6,13.3,13.4,13.3
			C20.8,26.6,26.8,20.6,26.8,13.3z M13.4,25.6C6.6,25.6,1,20.1,1,13.3C1,6.5,6.6,1,13.4,1c6.9,0,12.4,5.5,12.4,12.3
			C25.8,20.1,20.3,25.6,13.4,25.6L13.4,25.6z"/>
	</g>
</g>
</svg>
